X:022
T:Callaghan's Slide 
B:CRE3.052 (SleamhnÃÂÃÂÃÂÃÂ¡n Ui CheallachÃÂÃÂÃÂÃÂ¥in) 
F:file ID: cre.3/022call_S
R:slide
Q:180
M:12/8
L:1/8
K:D
B|A2A A2A ABA F2E|DFA B2A B2A F2e|
dcd a2g f2d B2A|BcA BAB d3 d2:|
A|dcd a2g f2d B2A|BcA BcA B2A F2e|
dcd a2g f2d B2A|BcA BcA d3 d2:|

%%%

